X: 09107
T: STILL NUTHIN' TO IT
C: Bob McQuillen 27 Feb 92
B: Bob's Note Book 9 p.107
R: jig
Z: 2017 John Chambers <jc:trillian.mit.edu>
L: 1/8
M: 6/8
K: G
d |\
geg dBG | EAG FED | geg d2d | eag fga |
gbg dBd | cde d2d | gdB cAd | BGG G2 :|
|: B, |\
A,DF AFA | BAF A2A | A,DF ABA | FDF EDB, |
A,DF AFA | Bde dAF | GAB ABc | dDD D2 :|
P: 2nd strain flute version:
|: A |\
FDF AFA | BAF A2A | FDF ABA | FDF EFG |
FDF AFA | Bde dAF | GAB ABc | dDD D2 :|
%%begintext align
%% I've tried and tried,
%% and tried again. Three Times I've Tried. Nuthin. Just
%% nuthin. Well, this is the last damn time. I mean
%% it! Enuf's enuf. (For info, please see Jack O'Connor.
%% The whole thing's all his fault, anyway.)
%%endtext
